libs/ui/packages/crypto-icons/src/svg/TUSD.svg

<svg width="24" height="24" viewBox="0 0 24 24" fill="none">
<path d="M12.7908 14.5773V10.1823H13.3683C15.277 10.1823 15.7473 8.40253 15.7473 8.40253H10.735C8.35601 8.40253 7.95251 10.183 7.95251 10.183H10.9098V16.7958C10.9098 16.7958 12.7908 16.231 12.7908 14.5773Z" fill="#2B2E7F"/>
<path d="M18.2942 18.0018C19.9802 16.2498 20.6267 13.8168 20.02 11.4895C19.6998 10.2718 19.0572 9.16289 18.16 8.27952C18.079 8.20002 17.998 8.11902 17.9035 8.03952L17.8225 7.95928C17.7675 7.90624 17.7088 7.85712 17.647 7.81228L17.539 7.73202L17.3777 7.61203L17.2825 7.54452C17.2181 7.50237 17.1553 7.45784 17.0942 7.41102L16.972 7.33152C16.9216 7.29486 16.8675 7.26345 16.8107 7.23777L16.6892 7.15753C16.6352 7.13053 16.5812 7.09003 16.5272 7.06378L16.4057 6.99627C16.3517 6.97002 16.2977 6.94302 16.2302 6.91677L16.189 6.90327C16.3375 7.02327 16.4852 7.15752 16.6202 7.29102C17.2355 7.90112 17.7239 8.62703 18.0572 9.42687C18.3906 10.2267 18.5622 11.0846 18.5622 11.9511C18.5622 12.8177 18.3906 13.6756 18.0572 14.4754C17.7239 15.2753 17.2355 16.0012 16.6202 16.6113C13.3307 19.8738 7.99147 19.8738 4.70047 16.6113C4.57897 16.4913 4.47097 16.3713 4.35022 16.2513L4.25572 16.144C4.18506 16.0618 4.11751 15.977 4.05322 15.8898C4.47625 16.7194 5.02696 17.4774 5.68522 18.136C9.12322 21.5455 14.7047 21.5455 18.1427 18.136C18.2026 18.1028 18.2544 18.0567 18.2942 18.001V18.0018Z" fill="#2B2E7F"/>
<path d="M7.79797 17.0958C7.64793 16.9734 7.50376 16.844 7.36597 16.708C6.75002 16.0974 6.26111 15.3708 5.92746 14.5701C5.5938 13.7695 5.42202 12.9108 5.42202 12.0434C5.42202 11.176 5.5938 10.3173 5.92746 9.51666C6.26111 8.71605 6.75002 7.98944 7.36597 7.37878C10.6592 4.11328 16.003 4.11328 19.2962 7.37878C19.5257 7.60678 19.741 7.84753 19.9435 8.10178C19.52 7.27565 18.969 6.5214 18.3107 5.86678C14.8697 2.45353 9.28222 2.45353 5.84122 5.86678C5.80072 5.90653 5.76022 5.96053 5.70622 6.00028C3.42547 8.38303 3.11497 11.9433 4.93747 14.647C5.65297 15.6895 6.65047 16.5595 7.79797 17.0958Z" fill="#2B2E7F"/>
</svg>

<svg width="24" height="24" viewBox="0 0 24 24" fill="none"><path fill="#2b2e7f" d="M12.79 14.577v-4.395h.578c1.909 0 2.38-1.78 2.38-1.78h-5.013c-2.379 0-2.782 1.781-2.782 1.781h2.957v6.613s1.88-.565 1.88-2.219"/><path fill="#2b2e7f" d="M18.294 18.002c1.686-1.752 2.333-4.185 1.726-6.512a7 7 0 0 0-1.86-3.21c-.081-.08-.162-.161-.256-.24l-.081-.08a2 2 0 0 0-.176-.148l-.108-.08-.161-.12-.096-.067a3 3 0 0 1-.188-.134l-.122-.08a1 1 0 0 0-.161-.093l-.122-.08c-.054-.027-.108-.068-.162-.094l-.121-.068c-.054-.026-.108-.053-.176-.08l-.041-.013a6.563 6.563 0 0 1 .431 9.708c-3.29 3.263-8.629 3.263-11.92 0-.121-.12-.229-.24-.35-.36l-.094-.107a4 4 0 0 1-.203-.254 8.9 8.9 0 0 0 1.632 2.246c3.438 3.41 9.02 3.41 12.458 0a.5.5 0 0 0 .151-.135"/><path fill="#2b2e7f" d="M7.798 17.096a6 6 0 0 1-.432-.388 6.567 6.567 0 0 1 0-9.33c3.293-3.265 8.637-3.265 11.93 0q.344.343.648.724a8.8 8.8 0 0 0-1.633-2.235c-3.441-3.413-9.029-3.413-12.47 0-.04.04-.08.094-.135.133-2.28 2.383-2.591 5.943-.769 8.647a7.2 7.2 0 0 0 2.861 2.449"/></svg>
